X:1
T:Title
L:1/8
Q:1/4=110
M:3/4
K:C
V:1 treble nm="Church Organ, Staff"
V:1
 AB c2 A2 | c2 B2 G2 | E2 F3 G | A2 E4 | e2 c3 B | A2 d2 A2 | B2 ^G2 z2 | A2 A3 G | F2 E2 A2 | %9
w: By~Arthur~Henry~Brown * * *|||||||||
 c2 B2 ^G2 | A2 d4 | B2 c3 d | ed c2 B2- | BA A4 | c2 c2 G2 | F2 E3 D | C2 c2 d2 | e2 d2 B2 | %18
w: |||||||||
 G2 A3 B | c2 d2 c2 | B2 A2 z2 | c2 F3 D | EF G3 G | AB c2 d2 | e2 c2 B2 | A2 G2 A2 | d2 B3 A | %27
w: |||||||||
 ^G2 A4 |] %28
w: |

